X:0414
M:6/8
L:1/8
Q:3/8=120
P:ABA
K:G
P:A
P:B
f2f|a2g e2e|a2f d2d|egf ed^c| d3
ded|g2g BcB|d2d GAG|c2B A2g |Hd3:|

